X: 23
T: Zan pan gege hui kouli
L: 1/8
M: 2/4
K: D
d> e f f [I:setbarnb 1]| 
f e d B | 
dA2B | 
E4 | 
d> e f f | 
f e d B | 
d> A A d | 
BA3 |]

@@@ Tune index: 8897
